X:16614
T:The Cuckoo's Nest
S:Peter Kennedy, The Fiddler's Tune-Book
M:C|
L:1/8
R:hornpipe
K:G
Bc|dcBA GBdg|fdcB cedc|BABG FGAB|c2A2 A2
Bc|dcBA GBdg|fdcB cedc|BABG FGAc|B2G2 G2:|
Bc|dBGB dBGB|dcBA G2AB|cAFA cAFA|cBAG F2
BA|GABc d2g2|fdcB cedc|BABG FGAc|B2G2 G2:|
Bc|dggf gabg|agfe d2de|fede fgag|fdcB c2
dc|BGBd gbag|fdcB cedc|BABG FGAc|B2G2 G2:|
